X:252
T:Fife Hunt
R:Reel
C:William Gow
B:The Athole Collection
M:C|
L:1/8
K:C
f|ec ~c2 GE ~E2|Ddd^c d2df|ec~c2 GE~E2|CccB c2c:|
f|ecgc acgc|Ddd^c d2df|ecgc acgc|GccB c2ef|ecgc acgc|
Ddd^c d2df|egce fadf|edcB c2c||

